src/ui/topology-fill.svg

<?xml version="1.0" encoding="UTF-8"?><svg xmlns="http://www.w3.org/2000/svg" viewBox="0 0 32 32"><defs><style>.uuid-1f2d65db-b047-4899-bfea-620793bd83bb{fill:none;}.uuid-1f2d65db-b047-4899-bfea-620793bd83bb,.uuid-1198fd6f-810b-4bff-a4b6-4c3ee4f04d57{stroke-width:0px;}.uuid-1198fd6f-810b-4bff-a4b6-4c3ee4f04d57{fill:#151515;}</style></defs><g id="uuid-a39bb93a-8ccb-462b-bf34-b55be5c34bf6"><rect class="uuid-1f2d65db-b047-4899-bfea-620793bd83bb" width="32" height="32"/></g><g id="uuid-85341cfa-adea-4024-98ed-15f979fa6709"><path class="uuid-1198fd6f-810b-4bff-a4b6-4c3ee4f04d57" d="M28,24.25c-.67,0-1.2906.1911-1.8356.5004l-4.7444-4.7444c.8317-1.1221,1.33-2.5052,1.33-4.0059s-.4984-2.8838-1.33-4.0059l2.7444-2.7444c.545.3093,1.1656.5004,1.8356.5004,2.0674,0,3.75-1.6826,3.75-3.75s-1.6826-3.75-3.75-3.75-3.75,1.6826-3.75,3.75c0,.67.1911,1.2906.5004,1.8356l-2.7444,2.7444c-1.1221-.8317-2.5052-1.33-4.0059-1.33s-2.8838.4984-4.0059,1.33l-4.7444-4.7444c.3093-.545.5004-1.1656.5004-1.8356C7.75,1.9326,6.0674.25,4,.25S.25,1.9326.25,4s1.6826,3.75,3.75,3.75c.67,0,1.2906-.1911,1.8356-.5004l4.7444,4.7444c-.8317,1.1221-1.33,2.5052-1.33,4.0059s.4984,2.8838,1.33,4.0059l-2.7444,2.7444c-.545-.3093-1.1656-.5004-1.8356-.5004-2.0674,0-3.75,1.6826-3.75,3.75s1.6826,3.75,3.75,3.75,3.75-1.6826,3.75-3.75c0-.67-.1911-1.2906-.5004-1.8356l2.7444-2.7444c1.1221.8317,2.5052,1.33,4.0059,1.33s2.8838-.4984,4.0059-1.33l4.7444,4.7444c-.3093.545-.5004,1.1656-.5004,1.8356,0,2.0674,1.6826,3.75,3.75,3.75s3.75-1.6826,3.75-3.75-1.6826-3.75-3.75-3.75Z"/></g></svg>

<svg xmlns="http://www.w3.org/2000/svg" viewBox="0 0 32 32">
  <path d="M0 0h32v32H0z" fill="none"/>
  <path d="M28 24.25c-.67 0-1.29.191-1.836.5l-4.744-4.744a6.702 6.702 0 0 0 0-8.012l2.744-2.744c.545.31 1.166.5 1.836.5 2.067 0 3.75-1.682 3.75-3.75S28.067 2.25 26 2.25 22.25 3.933 22.25 6c0 .67.191 1.29.5 1.836l-2.744 2.744C18.884 9.748 17.501 9.25 16 9.25s-2.884.499-4.006 1.33L7.25 5.836c.31-.545.5-1.166.5-1.836C7.75 1.933 6.067.25 4 .25S.25 1.933.25 4 1.933 7.75 4 7.75c.67 0 1.29-.191 1.836-.5l4.744 4.744a6.702 6.702 0 0 0 0 8.012L7.836 22.75A3.703 3.703 0 0 0 6 22.25c-2.067 0-3.75 1.682-3.75 3.75S3.933 29.75 6 29.75 9.75 28.067 9.75 26c0-.67-.191-1.29-.5-1.836l2.744-2.744c1.122.832 2.505 1.33 4.006 1.33s2.884-.499 4.006-1.33l4.744 4.744c-.31.545-.5 1.166-.5 1.836 0 2.067 1.682 3.75 3.75 3.75s3.75-1.683 3.75-3.75-1.683-3.75-3.75-3.75Z" fill="#151515"/>
</svg>
